week0/img/pulseclock_pulsemode.svg

<svg fill="none" height="400" viewBox="0 0 400 400" width="400" xmlns="http://www.w3.org/2000/svg"><g stroke="#bfd0fc" stroke-miterlimit="10"><path d="m200 397.531c109.093 0 197.531-88.438 197.531-197.531 0-109.0933-88.438-197.53088-197.531-197.53088-109.0933 0-197.53088 88.43758-197.53088 197.53088 0 109.093 88.43758 197.531 197.53088 197.531z"/><path d="m367.506 209.877c-5.432 0-9.876-4.445-9.876-9.877 0-86.914-70.716-157.6296-157.63-157.6296-5.432 0-9.876-4.4444-9.876-9.8765s4.444-9.8766 9.876-9.8766c97.827 0 177.383 79.6047 177.383 177.3827 0 5.432-4.445 9.877-9.877 9.877z"/></g></svg>

<svg width="400" height="400" viewBox="0 0 400 400" fill="none" xmlns="http://www.w3.org/2000/svg">
<path d="M200 397.531C309.093 397.531 397.531 309.093 397.531 200C397.531 90.9067 309.093 2.46912 200 2.46912C90.9067 2.46912 2.46912 90.9067 2.46912 200C2.46912 309.093 90.9067 397.531 200 397.531Z" stroke="#BFD0FC" stroke-miterlimit="10"/>
<path d="M367.506 209.877C362.074 209.877 357.63 205.432 357.63 200C357.63 113.086 286.914 42.3704 200 42.3704C194.568 42.3704 190.124 37.926 190.124 32.4939C190.124 27.0618 194.568 22.6173 200 22.6173C297.827 22.6173 377.383 102.222 377.383 200C377.383 205.432 372.938 209.877 367.506 209.877Z" stroke="#BFD0FC" stroke-miterlimit="10"/>
</svg>
